svgs/sharp-solid/clock-three-thirty.svg

<svg xmlns="http://www.w3.org/2000/svg" viewBox="0 0 512 512"><!--! Font Awesome Pro 6.6.0 by @fontawesome - https://fontawesome.com License - https://fontawesome.com/license (Commercial License) Copyright 2024 Fonticons, Inc. --><path d="M256 0a256 256 0 1 0 0 512A256 256 0 1 0 256 0zM232 392l0-136 0-24 24 0 104 0 24 0 0 48-24 0-80 0 0 112 0 24-48 0 0-24z"/></svg>

<svg xmlns="http://www.w3.org/2000/svg" viewBox="0 0 512 512"><!--! Font Awesome Pro 6.4.2 by @fontawesome - https://fontawesome.com License - https://fontawesome.com/license (Commercial License) Copyright 2023 Fonticons, Inc. --><path d="M256 0a256 256 0 1 0 0 512A256 256 0 1 0 256 0zM232 392V256 232h24H360h24v48H360 280V392v24H232V392z"/></svg>
